!!!!SEGMENT: pl-kk--i-545--013_anonim--sacred-song.krn
!!!cenid: 18xx:4490
!!!COM: Anonim
!!!COM-rismID: pe30004985
!!!CDT:
!!!CNT:
!!!OTL: [Sacred song]
!!!PDT:
!!!AGN: Sacred
!!!YEC: Copyright 2022 Narodowy Instytut Fryderyka Chopina (https://polishscores.org)
!!!YEM: License CC-BY-4.0 (https://creativecommons.org/licenses/by/4.0)
!!!SMS-siglum: PL-Kk
!!!SMS-shelfmark: I.545
!!!SMS-variant:
!!!SMS-altvar:
!!!SMS-shelfwork: 013 W
!!!NIFC-rismSourceID: 1001210831
!!!NIFC-rismChildID: 1001210994
!!!NIFC-islandoraID: pl-kk:17058
!!!URL-pdf-islandora: https://repozytorium.nifc.pl/islandora/object/pl-kk%3A17058/datastream/PDF/view
!!!URL-scan: https://polish.musicsources.pl/pl/lokalizacje/galeria/rekopisy/7172/10 @EN{Scan on Polish Music Sources Website} @PL{Skany w portalu Dziedzictwo Muzyki Polskiej w otwartym dostępie}
!!!IIIF:
!!!ONB-nifc: UWAGA: 8v-9v. Czterogłos rozpisany bez tekstu słownego
!!!OMD:
!!!AIN: 2 vox
!!!key: D
**kern	**dynam	**kern	**dynam
*part2	*part2	*part1	*part1
*staff2	*	*staff1	*
*I"[Voce]	*	*I"[Voce]	*
*Ivox	*	*Ivox	*
*ICvox	*	*ICvox	*
*clefF4	*	*clefG2	*
*k[f#c#]	*	*k[f#c#]	*
*D:	*	*D:	*
*M4/4	*	*M4/4	*
*met(c)	*	*met(c)	*
=1	=1	=1	=1
*^	*	*^	*
4F#/	4D\	.	4a/	4a\	.
8.F#/	8.D\	.	8.a/	8.a\	.
16F#/	16D\	.	16a#X/	16a#\	.
4G/	4G\	.	4b/	4b\	.
4G/	4GG\	.	4ee/	4b\	.
=2	=2	=2	=2	=2	=2
4F#/	4AA\	.	4.dd/	4a\	.
4E#X/	4AA\	.	.	4g#X\	.
.	.	.	8dd/	.	.
2E#/	2AA\	.	2cc#/	2a\	.
=3	=3	=3	=3	=3	=3
4G/	4G\	.	4b/	4g\	.
8.G/	8.G\	.	8.ee/	8.b\	.
16G/	16E\	.	16ee/	16b\	.
4B/	4BB\	.	4ff#/	4dd#X\	.
4B/	4E\	.	4gg/	4ee\	.
=4	=4	=4	=4	=4	=4
4A/	4A\	.	4.ff#/	4.ddn\	.
4G#X/	4G#\	.	.	.	.
.	.	.	8ff#/	8dd\	.
4A,\	4A/	.	4ee,/	4cc#\	.
4r	4ryy	.	4ee/	4cc#\	.
=5	=5	=5	=5	=5	=5
8r	8ryy	.	4.ee/	4.cc#\	.
8E/	8C#\	.	.	.	.
8F#/	8D\	.	.	.	.
8G#X/	8E\	.	8dd/	8b\	.
4G#/	4E#X\	.	4dd/	4b\	.
4A/	4F#\	.	4cc#/	4a\	.
!!LO:LB:g=original
=6	=6	=6	=6	=6	=6
4A/	4D\	.	4.ff#/	4.dd\	.
4A#X/	4F#\	.	.	.	.
.	.	.	8ee/	8cc#\	.
4A#/	4G\	.	4ee/	4cc#\	.
4B/	4G\	.	4dd/	4b\	.
=7	=7	=7	=7	=7	=7
4G#X/	4E#X\	.	4.dd/	4b\	.
4A/	4F#\	.	.	4a\	.
.	.	.	8cc#/	.	.
4A/	4C#\	.	4ee/	4a\	.
4F#/	4F#\	.	4a/	4a\	.
=8	=8	=8	=8	=8	=8
4F#/	4D\	.	4.b/	4a\	.
8E/L	4E\	.	.	4g#X\	.
8D/J	.	.	8b/	.	.
4C#/	4AA\	.	4a/	4a\	.
!	!	!	!	!	!LO:DY:a:rj
4F#/	4F#\	.	4cc#/	4a\	p
=9	=9	=9	=9	=9	=9
4.F#/	4.F#\	.	4.cc#/	4.a\	.
8F#/	8F#\	.	8cc#/	8a\	.
4F#/	4F#\	.	4cc#/	4a\	.
4G#X/	4C#\	.	4ff#/	4a\	.
=10	=10	=10	=10	=10	=10
4G#X/	4C#\	.	4.ee#/	4b\	.
4G#/	4F#\	.	.	4b#X\	.
.	.	.	8dd#X/	.	.
4G#X/	4E#X\	.	4cc#/	4cc#\	.
4G#/	4E#\	.	4cc#/	4cc#\	.
!!LO:LB:g=original
=11	=11	=11	=11	=11	=11
4A/	4F#\	.	4cc#/	4cc#\	.
8G/	8E\	.	8b#X/	8b#\	.
8A/	8F#\	.	8cc#/	8cc#\	.
!	!	!LO:DY:rj	!	!	!LO:DY:a:rj
4A/	4BB\	f	4.ff#/	4.dd#X\	f
4A/	4BB\	.	.	.	.
.	.	.	8ff#/	8dd#\	.
=12	=12	=12	=12	=12	=12
2G#X/	2BB#X\	.	4.gg#X/	2dd#X\	.
.	.	.	8ff#/	.	.
4G#/	4C#\	.	4ee/	4cc#\	.
4G#/	4C#\	.	4ee/	4b\	.
=13	=13	=13	=13	=13	=13
4Gn/	4C#\	.	4ee/	4b\	.
4E/	4C#\	.	4ggn/	4a#X\	.
4F#/	4AA#X\	.	4ff#/	4cc#\	.
4G/	4AA#\	.	4ee/	4cc#\	.
=14	=14	=14	=14	=14	=14
4F#/	4BB\	.	4.ee/	4.cc#\	.
4F#/	4BB\	.	.	.	.
.	.	.	8dd/	8b\	.
4F#/	4BB\	.	4ee/	4cc#\	.
4B/	4BB\	.	4ff#/	4dd\	.
=15	=15	=15	=15	=15	=15
4B/	4E\	.	4cc#/	4cc#\	.
8A/	8F#\	.	8cc#/	8cc#\	.
8F#/	8F#\	.	8cc#/	8a\	.
4E/	4C#\	.	4ee/	4g#X\	.
4F#/	4D\	.	4a/	8f#\L	.
.	.	.	.	8a\J	.
!!LO:LB:g=original
=16	=16	=16	=16	=16	=16
4F#/	4D\	.	4.b/	4a\	.
4E/	4E\	.	.	4g#X\	.
.	.	.	8b/	.	.
4C#/	4AA\	.	4a/	2ryy	.
4A/	4r	.	4r	.	.
=17	=17	=17	=17	=17	=17
4.B/	1r	.	1r	2r	.
8A/	.	.	.	.	.
8G/L	.	.	.	4r	.
8A/J	.	.	.	.	.
8G/L	.	.	.	4b\	.
8F#/J	.	.	.	.	.
=18	=18	=18	=18	=18	=18
4G/	1r	.	2r	4.ee\	.
4E/	.	.	.	.	.
.	.	.	.	8dd\	.
!LO:TX:t=P:problem=niezidentyfikowany znak	!	!	!	!	!
4A/	.	.	4r	8cc#\L	.
.	.	.	.	8b\J	.
4AA/	.	.	4a/	8cc#\L	.
.	.	.	.	8a\J	.
=19	=19	=19	=19	=19	=19
4D/	2r	.	4.ff#/	4a\	.
4F#/	.	.	.	4a#X\	.
.	.	.	8ee/	.	.
4F#/	4r	.	8dd/L	4a#\	.
.	.	.	8cc#/J	.	.
4G/	4G\	.	8b/L	4b\	.
.	.	.	8cc#/J	.	.
=20	=20	=20	=20	=20	=20
2A/	8G\L	.	4dd/	4a\	.
.	8F#\J	.	.	.	.
.	8E\L	.	8cc#/L	4a\	.
.	8D\J	.	8ff#/J	.	.
4A/	8C#\L	.	4ee/	4a\	.
.	8BB\J	.	.	.	.
4A/	8C#\L	.	4gg/	8ee\L	.
.	8AA\J	.	.	8cc#\J	.
!!LO:PB:g=original
=21	=21	=21	=21	=21	=21
4A/	4D\	.	4gg/	4ee\	.
8A/	8F#\	.	8ff#/	8dd\	.
8A/	8A\	.	8ee/	8cc#\	.
4A/	4D\	.	4ff#/	4dd\	.
4G/	4G\	.	8ff#/	4b\	.
.	.	.	8b/	.	.
=22	=22	=22	=22	=22	=22
4G/	4C#\	.	4.ee/	4a#X\	.
4F#/	4AA#X\	.	.	4cc#\	.
.	.	.	8ee/	.	.
4F#/	4BB\	.	4dd/	4b\	.
8F#/L	8F#\L	.	8f#/L	8f#\L	.
8G#X/J	8G#\J	.	8g#X/J	8g#\J	.
=23	=23	=23	=23	=23	=23
8.A/L	8.A\L	.	8.a/L	8.a\L	.
16G#X/Jk	16G#\Jk	.	16g#X/Jk	16g#\Jk	.
8A/	8A\	.	8a/	8a\	.
8B/	8B\	.	8b/	8b\	.
4c#/	4c#\	.	4cc#/	4cc#\	.
8F#/L	8F#\L	.	8a/L	8a\L	.
8G#/J	8G#\J	.	8b/J	8b\J	.
=24	=24	=24	=24	=24	=24
4A/	4A\	.	4cc#/	4cc#\	.
8F#/L	8F#\L	.	8dd/L	8dd\L	.
8G/J	8G\J	.	8b/J	8b\J	.
4A/	4A\	.	4cc#/	4ryy	.
4F#/	4D#X\	.	4b#X/	4a\	.
=25	=25	=25	=25	=25	=25
4G/	4E\	.	4cc#/	4a\	.
4G/	4E\	.	4cc#/	4a\	.
4F#/	4D\	.	4dd/	4a\	.
8G/L	8E\L	.	8cc#/L	4a\	.
8F#/J	8D\J	.	8dd/J	.	.
!!LO:LB:g=original
=26	=26	=26	=26	=26	=26
2F#/	4Cn\	.	4dd#X/	4a\	.
.	8BB\L	.	4dd#/	8b\L	.
.	8AA\J	.	.	8b#X\J	.
4G;/	4AA;\	.	4ee;/	4cc#\	.
4rD;	4rD;	.	4r;	4ryy	.
=27	=27	=27	=27	=27	=27
4F#/	4D\	.	4a/	4a\	.
8.F#/	8.D\	.	8.a/	8.a\	.
16F#/	16D\	.	16a#X/	16a#\	.
4G/	4G\	.	4b/	4b\	.
4G/	4GG\	.	4ee/	4b\	.
=28	=28	=28	=28	=28	=28
4F#/	4AA\	.	4.dd/	4a\	.
4E#X/	4AA\	.	.	4g#X\	.
.	.	.	8dd/	.	.
2E#/	2AA\	.	2cc#/	2a\	.
=29	=29	=29	=29	=29	=29
4G/	4G\	.	4b/	4g\	.
8.G/	8.G\	.	8.ee/	8.b\	.
16G/	16E\	.	16ee/	16a\	.
4B/	4BB\	.	4ff#/	4dd#X\	.
4E/ 4B	4E\	.	4gg/	4ee\	.
=30	=30	=30	=30	=30	=30
4A/	4A\	.	4.ff#/	4.ddn\	.
4G#X/	4G#\	.	.	.	.
.	.	.	8ff#/	8dd\	.
4A,/	4A\	.	4ee,/	4cc#\	.
4r	4ryy	.	4ee/	4cc#\	.
!!LO:LB:g=original
=31	=31	=31	=31	=31	=31
8r	8ryy	.	4.ee/	4.cc#\	.
8E/	8C#\	.	.	.	.
8F#/	8D\	.	.	.	.
8G#X/	8E\	.	8dd/	8b\	.
4G#/	4E#X\	.	4dd/	4b\	.
4A/	4F#\	.	4cc#/	4a\	.
=32	=32	=32	=32	=32	=32
4A/	4D\	.	4.ff#/	4.dd\	.
4A/	4F#X/	.	.	.	.
.	.	.	8ee/	8cc#\	.
4A/	4Gn\	.	4ee/	4cc#\	.
4B/	4G\	.	4dd/	4b\	.
=33	=33	=33	=33	=33	=33
4G/	4E#X\	.	4.dd/	4b\	.
4A/	4F#\	.	.	4a\	.
.	.	.	8cc#/	.	.
4F#/	4C#\	.	4ee/	4a\	.
4F#/	4F#\	.	4a/	4a\	.
=34	=34	=34	=34	=34	=34
4F#/	4D\	.	4.b/	4a\	.
4E/	4E\	.	.	4g\	.
.	.	.	8b/	.	.
4E/	4C#\;	.	4a;/	4g\	.
4r	4ryy	.	8b/	8f#\	.
.	.	.	8a#X/	8f#\	.
=35	=35	=35	=35	=35	=35
2r	2.ryy	.	8b/L	8g\L	.
.	.	.	8cc#/J	8a\J	.
.	.	.	8dd/	8b\	.
.	.	.	8ee/	8cc#\	.
4r	.	.	4.ff#/	4.dd\	.
8F#/	8D\	.	.	.	.
8G/	8E\	.	8ee/	8cc#\	.
!!LO:LB:g=original
=36	=36	=36	=36	=36	=36
8A/L	4F#\	.	2r	2.ryy	.
8A#X/J	.	.	.	.	.
8B/	8G\	.	.	.	.
8c#/	8A#\	.	.	.	.
4.d/	4.B\	.	4r	.	.
.	.	.	8b/	8g\	.
8c#/	8A#\	.	8cc#/	8a\	.
=37	=37	=37	=37	=37	=37
4B/	4G\	.	8dd/L	4b\	.
.	.	.	8dd#X/J	.	.
4r	2ryy	.	8ee/	8cc#\	.
.	.	.	8ff#/	8ddn\	.
4r	.	.	4.gg/	4.ee\	.
8G/	8E\	.	.	.	.
8A/	8F#\	.	8ff#/	8dd\	.
=38	=38	=38	=38	=38	=38
8A#X/L	8F#\L	.	4ee/	4cc#\	.
8B/J	8G#X\J	.	.	.	.
8c#/	8A#\	.	2.ryy	2.ryy	.
8d/	8B\	.	.	.	.
4.e/	4.c#\	.	.	.	.
8d/	8B\	.	.	.	.
=39	=39	=39	=39	=39	=39
4c#/	4A\	.	4r	4ryy	.
4c#\	4A\	.	4gg/	4ee\	.
4c#/	4A\	.	4.gg/	4ee\	.
4c#/	4A#X\	.	.	4ee\	.
.	.	.	8ff#/	.	.
=40	=40	=40	=40	=40	=40
4c#/	4A#X\	.	4gg/	4ee\	.
4c#/	4A#\	.	4ff#/	4ee\	.
4B/	4B\	.	4.ff#/	4.dd\	.
4B/	4B\	.	.	.	.
.	.	.	8ff#/	8dd\	.
!!LO:PB:g=original
=41	=41	=41	=41	=41	=41
4A/	4A\	.	4ff#/	4dd\	.
4G#X/	4G#\	.	4ff#/	4dd\	.
4A/	4A\	.	4ee/	4dd\	.
4Gn/	4AA\	.	4ee/	4cc#\	.
=42	=42	=42	=42	=42	=42
4F#/	4D\	.	4dd/	2.a\	.
2A/	4AA\	.	8cc#/L	.	.
.	.	.	8b/J	.	.
.	4A\	.	8cc#/L	.	.
.	.	.	8a/J	.	.
4A/	4G\	.	8b/L	4a\	.
.	.	.	8cc#/J	.	.
=43	=43	=43	=43	=43	=43
8A/L	8F#\L	.	8dd/L	4a\	.
8G/J	8E\J	.	8cc#/J	.	.
8F#/L	4D\	.	8dd/L	4a\	.
8G/J	.	.	8ee/J	.	.
4A/	4D\	.	4ff#/	4a\	.
4r	4ryy	.	8a/	8f#\	.
.	.	.	8a#X/	8f#\	.
=44	=44	=44	=44	=44	=44
2r	2.ryy	.	8b/L	8g\L	.
.	.	.	8cc#/J	8a\J	.
.	.	.	8dd/	8b\	.
.	.	.	8ee/	8cc#\	.
4r	.	.	4.ff#/	4.dd\	.
8F#/	8D\	.	.	.	.
8G/	8E\	.	8ee/	8cc#\	.
=45	=45	=45	=45	=45	=45
8A/L	4F#\	.	4dd/	4dd\	.
8A#X/J	.	.	.	.	.
8B/	8G\	.	4ryy	2ryy	.
8c#/	8A#\	.	.	.	.
4.d/	4.B\	.	4r	.	.
.	.	.	8b/	8g\	.
8c#/	8A#\	.	8cc#/	8a\	.
!!LO:LB:g=original
=46	=46	=46	=46	=46	=46
4B/	4G\	.	8dd/L	4b\	.
.	.	.	8dd#X/J	.	.
4r	2ryy	.	8ee/	8cc#\	.
.	.	.	8ff#/	8ddn\	.
4r	.	.	4.gg/	4.ee\	.
8G/	8E\	.	.	.	.
8A/	8F#\	.	8ff#/	8dd\	.
=47	=47	=47	=47	=47	=47
8A#X/L	8F#\L	.	4ee/	4cc#\	.
8B/J	8G#X\J	.	.	.	.
8c#/	8A#\	.	4r	2.ryy	.
8d/	8B\	.	.	.	.
4.e/	4.c#\	.	2r	.	.
8d/	8B\	.	.	.	.
=48	=48	=48	=48	=48	=48
4c#/	4A\	.	4r	4ryy	.
4c#/	4A\	.	4gg/	4ee\	.
4c#/	4A\	.	4.gg/	4ee\	.
4c#/	4A#X\	.	.	4ee\	.
.	.	.	8ff#/	.	.
=49	=49	=49	=49	=49	=49
4c#/	4A#X\	.	4gg/	4ee\	.
4c#/	4A#\	.	4ff#/	4ee\	.
!	!	!	!LO:N:vis=4ff/	!LO:N:vis=4dd\	!
4B/	4B\	.	4.ff#/	4.dd\	.
4B/	4B\	.	.	.	.
.	.	.	8ff#/	8dd\	.
=50	=50	=50	=50	=50	=50
4A/	4A\	.	4ff#/	4dd\	.
4G#X/	4G#\	.	4ff#/	4dd\	.
4A/	4A\	.	4ee/	4dd\	.
4Gn/	4AA\	.	4ee/	4cc#\	.
!!LO:LB:g=original
=51	=51	=51	=51	=51	=51
4F#/	4D\	.	4dd/	4dd\	.
4B/	4BB\	.	4gg/	4dd\	.
2B/	2G\	.	2ee/	2dd\	.
=52	=52	=52	=52	=52	=52
4A/	2AA\	.	2ee/	2cc#\	.
4G/	.	.	.	.	.
4F#/	4D\	.	4dd/	4a\ 4dd	.
8F#/	8D\	.	8a/	8a\	.
8F#/	8D\	.	8a#X/	8a#\	.
=53	=53	=53	=53	=53	=53
4F#/	8D\L	.	4.b/	2.b\	.
.	8D#X\J	.	.	.	.
4G/	4E\	.	.	.	.
.	.	.	8cc#/	.	.
4F#/	4BB\	.	4b/ 4dd	.	.
8B/	8G\	.	8b/	8b\	.
8B/	8G\	.	8cc#/	8cc#\	.
=54	=54	=54	=54	=54	=54
8B/L	4G\	.	4.dd/	4.dd\	.
8A#X/J	.	.	.	.	.
4B/	4GG\	.	.	.	.
.	.	.	8ee/	8cc#\	.
!LO:TX:t=P:problem=SIC:s=2An;/ ?	!	!	!	!	!
2A#;/	2D;\	.	2ff#;/	2dd\	.
*v	*v	*	*	*	*
*	*	*v	*v	*
==	==	==	==
*-	*-	*-	*-
!!!system-decoration: (s1,s2)
!!!ENC: Filip Voros
!!!END: 2023-10-28
!!!EED: Marta Chmielewska
!!!EEV: 2024-04-22
